img/logos/lyft.svg

<?xml version="1.0" encoding="UTF-8" standalone="no"?>
<svg width="72px" height="52px" viewBox="0 0 72 52" version="1.1" xmlns="http://www.w3.org/2000/svg" xmlns:xlink="http://www.w3.org/1999/xlink">
    <!-- Generator: Sketch 45 (43475) - http://www.bohemiancoding.com/sketch -->
    <title>lyft (1)</title>
    <desc>Created with Sketch.</desc>
    <defs></defs>
    <g id="Page-1" stroke="none" stroke-width="1" fill="none" fill-rule="evenodd" opacity="0.597423041">
        <g id="Envoy-R2" transform="translate(-317.000000, -1005.000000)" fill-rule="nonzero" fill="#222222">
            <g id="Group-22" transform="translate(298.000000, 1005.000000)">
                <g id="lyft-(1)" transform="translate(19.000000, 0.000000)">
                    <path d="M26.7316071,25.305602 C26.7316071,27.1042015 26.5416429,28.0023833 25.2289286,28.0023833 C23.8583571,28.0023833 23.6420357,27.1856511 23.6420357,25.553145 L23.6420357,11.1950123 L13.0001786,11.1950123 L13.0001786,28.0585995 C13.0001786,30.9920639 13.7111786,33.4080835 15.3771429,35.3069779 C17.0427857,37.2036364 19.1012143,38.1529238 21.6729643,38.1529238 C23.4122143,38.1529238 25.1585357,37.6227027 26.9717143,36.5577887 C25.9727143,40.317887 23.7275357,42.1979361 20.3586429,42.1979361 C19.3043571,42.1979361 18.2976429,41.9040786 16.6345714,41.3154054 C16.6345714,41.3154054 15.0605357,40.8187224 13.0001786,39.6276413 L13.0001786,48.3890663 C13.0001786,48.3890663 15.0496071,49.6647912 16.6345714,50.2582555 C18.576,50.9913022 20.4872143,51.3586241 22.4116071,51.3586241 C26.7981429,51.3586241 30.4666071,49.6890663 33.5571429,46.3515479 C36.1475357,43.5455283 37.3737857,39.8585749 37.3737857,35.2932432 L37.3737857,11.1950123 L26.7316071,11.1950123 L26.7316071,25.305602 Z M50.8596429,0.384570025 C38.2303929,1.51496314 39.08925,14.9346683 39.08925,14.9346683 L39.08925,38.4020639 C45.9552857,38.4020639 49.3875,35.1268305 49.3875,30.5915233 L49.3875,27.5264619 L54.4519286,27.5264619 L54.4519286,17.3190663 L49.3875,17.3190663 L49.3875,15.9529484 C49.3875,14.3574939 49.8124286,13.1293612 50.5250357,12.2666339 C51.2225357,11.4246683 52.2414643,10.9966585 53.5114286,10.9774939 C54.3583929,10.9870762 55.9150714,11.2659214 56.22975,12.4793612 L56.2528929,12.5758231 L56.2528929,23.214742 C56.2528929,27.1220885 56.9937857,30.2583784 58.5858214,32.62457 C59.84325,34.4768305 61.4854286,35.9435627 63.5673214,37.0270025 C65.6492143,38.1082064 67.8387857,38.6470516 70.1900357,38.6470516 C70.4494286,38.6470516 70.9206429,38.6397052 71.3568214,38.6202211 L71.3568214,27.8097789 C69.1801071,27.8097789 68.2463571,27.4098771 67.5533571,26.5832432 C66.85875,25.7582064 66.5231786,24.1244226 66.5231786,22.0824324 L70.2295714,22.0824324 L70.2295714,11.1950123 L66.7195714,11.1950123 C66.0590357,7.11230958 63.5920714,0.962383292 54.4403571,0.277248157 C54.4403571,0.277248157 53.3568214,0.236683047 52.5076071,0.266388206 C51.8454643,0.29002457 50.8596429,0.384570025 50.8596429,0.384570025 L50.8596429,0.384570025 Z M14.8811786,37.5524324 L14.8888929,37.5687224 C13.7044286,38.2889926 12.3136071,38.7888698 11.2843929,39.0533415 L11.2843929,39.1089189 L11.2487143,39.0584521 C10.6183929,39.1961179 9.99353571,39.2711794 9.39246429,39.2711794 C6.79853571,39.2711794 4.72017857,38.314226 3.04103571,36.4 C1.36157143,34.4848157 0.642857143,32.0480344 0.642857143,29.0890172 L0.642857143,0.962702703 L11.2843929,0.962702703 L11.2843929,29.0893366 C11.2843929,32.0486732 11.9944286,34.4854545 13.6751786,36.4 C14.0415189,36.8193703 14.4451518,37.2050749 14.8811786,37.5524324 L14.8811786,37.5524324 Z" id="Shape"></path>
                </g>
            </g>
        </g>
    </g>
</svg>

<svg width="72" height="52" xmlns="http://www.w3.org/2000/svg"><path d="M26.732 25.306c0 1.799-.19 2.697-1.503 2.697-1.37 0-1.587-.817-1.587-2.45V11.197H13V28.06c0 2.933.711 5.35 2.377 7.248 1.666 1.897 3.724 2.846 6.296 2.846 1.74 0 3.486-.53 5.299-1.595-.999 3.76-3.244 5.64-6.613 5.64-1.054 0-2.061-.294-3.724-.883 0 0-1.574-.496-3.635-1.687v8.761s2.05 1.276 3.635 1.87c1.941.732 3.852 1.1 5.777 1.1 4.386 0 8.055-1.67 11.146-5.008 2.59-2.806 3.816-6.493 3.816-11.058V11.196H26.732v14.111zM50.86.385c-12.629 1.13-11.77 14.55-11.77 14.55v23.467c6.866 0 10.298-3.275 10.298-7.81v-3.066h5.064V17.32h-5.064v-1.366c0-1.595.425-2.823 1.138-3.686.697-.842 1.716-1.27 2.986-1.29.847.01 2.404.29 2.718 1.503l.023.096v10.64c0 3.907.741 7.043 2.333 9.41 1.258 1.851 2.9 3.318 4.982 4.401a14.115 14.115 0 0 0 6.622 1.62c.26 0 .731-.007 1.167-.026V27.81c-2.176 0-3.11-.4-3.803-1.227-.695-.825-1.03-2.459-1.03-4.5h3.706V11.195h-3.51C66.06 7.114 63.592.963 54.44.278c0 0-1.083-.04-1.932-.01-.662.023-1.648.118-1.648.118zM14.882 37.553l.008.016c-1.185.72-2.576 1.22-3.605 1.485v.055l-.035-.05a8.742 8.742 0 0 1-1.857.213c-2.594 0-4.672-.957-6.351-2.871C1.362 34.485.644 32.049.644 29.09V.964h10.642V29.09c0 2.959.71 5.396 2.39 7.31.367.42.77.805 1.206 1.153z" fill="#222" fill-rule="nonzero" opacity=".597"/></svg>
